local/share/icons/dracula-icons-main/scalable/apps/texstudio.svg

<?xml version="1.0" encoding="UTF-8"?>
<svg xmlns="http://www.w3.org/2000/svg" xmlns:xlink="http://www.w3.org/1999/xlink" width="64" height="64" viewBox="0 0 64 64">
<path fill-rule="nonzero" fill="rgb(66.666667%, 33.333333%, 72.54902%)" fill-opacity="1" d="M 15.609375 8.464844 C 15.609375 12.410156 12.410156 15.609375 8.464844 15.609375 C 4.519531 15.609375 1.324219 12.410156 1.324219 8.464844 C 1.324219 4.519531 4.519531 1.324219 8.464844 1.324219 C 12.410156 1.324219 15.609375 4.519531 15.609375 8.464844 Z M 15.609375 8.464844 "/>
<path fill-rule="evenodd" fill="rgb(100%, 100%, 100%)" fill-opacity="0.3" d="M 5.894531 2.378906 C 5.707031 2.460938 5.519531 2.546875 5.339844 2.644531 L 11.601562 2.644531 C 11.425781 2.546875 11.242188 2.460938 11.054688 2.378906 Z M 3.96875 3.625 C 3.851562 3.734375 3.738281 3.851562 3.625 3.96875 L 3.703125 3.96875 L 3.703125 5.027344 L 2.828125 5.027344 C 2.769531 5.113281 2.714844 5.203125 2.664062 5.292969 L 3.703125 5.292969 L 3.703125 6.351562 L 2.207031 6.351562 C 2.175781 6.4375 2.148438 6.527344 2.121094 6.613281 L 3.703125 6.613281 L 3.703125 7.671875 L 1.90625 7.671875 C 1.894531 7.761719 1.886719 7.847656 1.878906 7.9375 L 3.703125 7.9375 L 3.703125 8.996094 L 1.875 8.996094 C 1.886719 9.085938 1.894531 9.171875 1.90625 9.261719 L 3.703125 9.261719 L 3.703125 10.320312 L 2.121094 10.320312 C 2.148438 10.40625 2.175781 10.496094 2.207031 10.582031 L 3.703125 10.582031 L 3.703125 11.640625 L 2.671875 11.640625 C 2.71875 11.730469 2.769531 11.820312 2.824219 11.90625 L 3.703125 11.90625 L 3.703125 12.964844 L 3.625 12.964844 C 3.734375 13.082031 3.851562 13.195312 3.96875 13.304688 L 3.96875 13.230469 L 13.054688 13.230469 C 13.140625 13.144531 13.222656 13.054688 13.304688 12.964844 L 3.96875 12.964844 L 3.96875 11.90625 L 14.105469 11.90625 C 14.164062 11.820312 14.214844 11.730469 14.269531 11.640625 L 3.96875 11.640625 L 3.96875 10.582031 L 14.726562 10.582031 C 14.753906 10.496094 14.785156 10.40625 14.8125 10.320312 L 3.96875 10.320312 L 3.96875 9.261719 L 15.027344 9.261719 C 15.039062 9.171875 15.046875 9.085938 15.054688 8.996094 L 3.96875 8.996094 L 3.96875 7.9375 L 15.058594 7.9375 C 15.046875 7.847656 15.039062 7.761719 15.027344 7.671875 L 3.96875 7.671875 L 3.96875 6.613281 L 14.8125 6.613281 C 14.785156 6.527344 14.757812 6.4375 14.726562 6.351562 L 3.96875 6.351562 L 3.96875 5.292969 L 14.261719 5.292969 C 14.214844 5.203125 14.164062 5.113281 14.109375 5.027344 L 3.96875 5.027344 L 3.96875 3.96875 L 13.308594 3.96875 C 13.222656 3.878906 13.136719 3.789062 13.046875 3.703125 L 3.96875 3.703125 Z M 5.332031 14.289062 C 5.507812 14.382812 5.691406 14.472656 5.875 14.550781 L 11.039062 14.550781 C 11.230469 14.472656 11.414062 14.382812 11.59375 14.289062 Z M 5.332031 14.289062 "/>
<path fill="none" stroke-width="0.52916" stroke-linecap="butt" stroke-linejoin="miter" stroke="rgb(66.666667%, 33.333333%, 72.54902%)" stroke-opacity="1" stroke-miterlimit="4" d="M 13.492188 11.90625 C 13.492188 12.292969 13.414062 12.601562 13.253906 12.835938 C 13.09375 13.066406 12.847656 13.214844 12.511719 13.285156 L 12.511719 12.863281 C 12.644531 12.796875 12.734375 12.675781 12.757812 12.53125 L 12.515625 12.53125 L 12.515625 11.382812 L 13.492188 11.382812 Z M 12.183594 11.90625 C 12.183594 12.292969 12.105469 12.601562 11.945312 12.835938 C 11.78125 13.066406 11.535156 13.214844 11.203125 13.285156 L 11.203125 12.863281 C 11.273438 12.832031 11.332031 12.785156 11.382812 12.726562 C 11.417969 12.667969 11.441406 12.601562 11.449219 12.53125 L 11.203125 12.53125 L 11.203125 11.382812 L 12.183594 11.382812 Z M 12.183594 11.90625 "/>
<path fill-rule="evenodd" fill="rgb(66.666667%, 33.333333%, 72.54902%)" fill-opacity="1" d="M 13.492188 11.90625 C 13.492188 12.292969 13.414062 12.601562 13.253906 12.835938 C 13.09375 13.066406 12.847656 13.214844 12.511719 13.285156 L 12.511719 12.863281 C 12.644531 12.796875 12.734375 12.675781 12.757812 12.53125 L 12.515625 12.53125 L 12.515625 11.382812 L 13.492188 11.382812 Z M 12.183594 11.90625 C 12.183594 12.292969 12.105469 12.601562 11.945312 12.835938 C 11.78125 13.066406 11.535156 13.214844 11.203125 13.285156 L 11.203125 12.863281 C 11.273438 12.832031 11.332031 12.785156 11.382812 12.726562 C 11.417969 12.667969 11.441406 12.601562 11.449219 12.53125 L 11.203125 12.53125 L 11.203125 11.382812 L 12.183594 11.382812 Z M 12.183594 11.90625 "/>
<path fill-rule="nonzero" fill="rgb(66.666667%, 33.333333%, 72.54902%)" fill-opacity="1" stroke-width="0.52916" stroke-linecap="butt" stroke-linejoin="miter" stroke="rgb(66.666667%, 33.333333%, 72.54902%)" stroke-opacity="1" stroke-miterlimit="4" d="M 5.398438 8.496094 L 6.039062 8.496094 L 6.039062 5.824219 L 6.949219 5.824219 L 6.949219 5.292969 L 4.496094 5.292969 L 4.496094 5.824219 L 5.398438 5.824219 Z M 5.398438 8.496094 "/>
<path fill-rule="nonzero" fill="rgb(66.666667%, 33.333333%, 72.54902%)" fill-opacity="1" stroke-width="0.52916" stroke-linecap="butt" stroke-linejoin="miter" stroke="rgb(66.666667%, 33.333333%, 72.54902%)" stroke-opacity="1" stroke-miterlimit="4" d="M 7.144531 10.085938 L 9.15625 10.085938 L 9.15625 9.546875 L 7.785156 9.546875 L 7.785156 8.6875 L 8.910156 8.6875 L 8.910156 8.152344 L 7.785156 8.152344 L 7.785156 7.410156 L 9.109375 7.410156 L 9.109375 6.878906 L 7.144531 6.878906 Z M 7.144531 10.085938 "/>
<path fill-rule="nonzero" fill="rgb(66.666667%, 33.333333%, 72.54902%)" fill-opacity="1" stroke-width="0.52916" stroke-linecap="butt" stroke-linejoin="miter" stroke="rgb(66.666667%, 33.333333%, 72.54902%)" stroke-opacity="1" stroke-miterlimit="4" d="M 9.789062 9.027344 L 10.46875 9.027344 L 10.8125 8.316406 C 10.890625 8.152344 10.964844 7.980469 11.046875 7.789062 L 11.0625 7.789062 C 11.15625 7.980469 11.230469 8.152344 11.3125 8.316406 L 11.671875 9.027344 L 12.382812 9.027344 L 11.484375 7.402344 L 12.328125 5.820312 L 11.652344 5.820312 L 11.347656 6.480469 C 11.28125 6.628906 11.214844 6.785156 11.136719 6.984375 L 11.113281 6.984375 C 11.019531 6.785156 10.949219 6.628906 10.875 6.480469 L 10.554688 5.820312 L 9.847656 5.820312 L 10.691406 7.371094 Z M 9.789062 9.027344 "/>
<path fill-rule="nonzero" fill="rgb(100%, 100%, 100%)" fill-opacity="1" d="M 9.789062 9.027344 L 10.46875 9.027344 L 10.8125 8.316406 C 10.890625 8.152344 10.964844 7.980469 11.046875 7.789062 L 11.0625 7.789062 C 11.15625 7.980469 11.230469 8.152344 11.3125 8.316406 L 11.671875 9.027344 L 12.382812 9.027344 L 11.484375 7.402344 L 12.328125 5.820312 L 11.652344 5.820312 L 11.347656 6.480469 C 11.28125 6.628906 11.214844 6.785156 11.136719 6.984375 L 11.113281 6.984375 C 11.019531 6.785156 10.949219 6.628906 10.875 6.480469 L 10.554688 5.820312 L 9.847656 5.820312 L 10.691406 7.371094 Z M 9.789062 9.027344 "/>
<path fill-rule="evenodd" fill="rgb(100%, 100%, 100%)" fill-opacity="1" d="M 13.492188 11.90625 C 13.492188 12.292969 13.414062 12.601562 13.253906 12.835938 C 13.09375 13.066406 12.847656 13.214844 12.511719 13.285156 L 12.511719 12.863281 C 12.644531 12.796875 12.734375 12.675781 12.757812 12.53125 L 12.515625 12.53125 L 12.515625 11.382812 L 13.492188 11.382812 Z M 12.183594 11.90625 C 12.183594 12.292969 12.105469 12.601562 11.945312 12.835938 C 11.78125 13.066406 11.535156 13.214844 11.203125 13.285156 L 11.203125 12.863281 C 11.273438 12.832031 11.332031 12.785156 11.382812 12.726562 C 11.417969 12.667969 11.441406 12.601562 11.449219 12.53125 L 11.203125 12.53125 L 11.203125 11.382812 L 12.183594 11.382812 Z M 12.183594 11.90625 "/>
<path fill-rule="nonzero" fill="rgb(100%, 100%, 100%)" fill-opacity="1" d="M 5.398438 8.496094 L 6.039062 8.496094 L 6.039062 5.824219 L 6.949219 5.824219 L 6.949219 5.292969 L 4.496094 5.292969 L 4.496094 5.824219 L 5.398438 5.824219 Z M 5.398438 8.496094 "/>
<path fill-rule="nonzero" fill="rgb(100%, 100%, 100%)" fill-opacity="1" d="M 7.144531 10.085938 L 9.15625 10.085938 L 9.15625 9.546875 L 7.785156 9.546875 L 7.785156 8.6875 L 8.910156 8.6875 L 8.910156 8.152344 L 7.785156 8.152344 L 7.785156 7.410156 L 9.109375 7.410156 L 9.109375 6.878906 L 7.144531 6.878906 Z M 7.144531 10.085938 "/>
</svg>

<svg width="64" height="64" version="1.1" viewBox="0 0 16.933 16.933" xmlns="http://www.w3.org/2000/svg">
 <circle cx="8.4665" cy="8.4665" r="7.1436" fill="#aa55b9" style="paint-order:stroke fill markers"/>
 <path d="m5.8946 2.3802a6.6145 6.6145 0 0 0-0.55551 0.26458h6.2637a6.6145 6.6145 0 0 0-0.54726-0.26458zm-1.9254 1.2438a6.6145 6.6145 0 0 0-0.3426 0.34623h0.077514v1.0568h-0.87745a6.6145 6.6145 0 0 0-0.16278 0.26511h1.0402v1.0578h-1.4976a6.6145 6.6145 0 0 0-0.085266 0.26511h1.5828v1.0578h-1.7988a6.6145 6.6145 0 0 0-0.026871 0.26511h1.8257v1.0583h-1.8278a6.6145 6.6145 0 0 0 0.031522 0.26406h1.7963v1.0588h-1.5834a6.6145 6.6145 0 0 0 0.087848 0.26406h1.4955v1.0588h-1.032a6.6145 6.6145 0 0 0 0.15141 0.26406h0.88055v1.0588h-0.079064a6.6145 6.6145 0 0 0 0.34417 0.34054v-0.07648h9.0857a6.6145 6.6145 0 0 0 0.24959-0.26406h-9.3352v-1.0588h10.137a6.6145 6.6145 0 0 0 0.16226-0.26406h-10.3v-1.0588h10.757a6.6145 6.6145 0 0 0 0.08527-0.26406h-10.842v-1.0588h11.059a6.6145 6.6145 0 0 0 0.02687-0.26406h-11.085v-1.0583h11.088a6.6145 6.6145 0 0 0-0.032038-0.26511h-11.056v-1.0578h10.844a6.6145 6.6145 0 0 0-0.088364-0.26511h-10.755v-1.0588h10.292a6.6145 6.6145 0 0 0-0.15193-0.26511h-10.14v-1.0578h9.3389a6.6145 6.6145 0 0 0-0.26303-0.26511h-9.0759v-0.079064zm1.3611 10.664a6.6145 6.6145 0 0 0 0.54517 0.26354h5.1654a6.6145 6.6145 0 0 0 0.55292-0.26354h-6.2637z" fill="#fff" fill-opacity=".3" fill-rule="evenodd"/>
 <path d="m13.493 11.906c0 0.388-0.08 0.697-0.24 0.928s-0.407 0.38-0.74 0.45v-0.42c0.13008-0.06632 0.22125-0.19011 0.246-0.334h-0.245v-1.146h0.98zm-1.309 0c0 0.388-0.08 0.697-0.24 0.928-0.161 0.231-0.408 0.38-0.74 0.45v-0.42c0.06797-0.03273 0.12828-0.07941 0.177-0.137 0.03878-0.05895 0.06216-0.12668 0.068-0.197h-0.245v-1.146h0.98z" fill="#aa55b9" fill-rule="evenodd" stroke="#aa55b9" stroke-width=".52916" style="paint-order:stroke markers fill"/>
 <g fill="#fff">
  <g stroke="#32a3d7" stroke-width=".52916">
   <g aria-label="T">
    <path d="m5.3988 8.4968h0.64105v-2.6725h0.9096v-0.53277h-2.4516v0.53277h0.90094z" fill="#aa55b9" stroke="#aa55b9" stroke-width=".52916"/>
   </g>
   <g aria-label="E">
    <path d="m7.1436 10.084h2.0141v-0.5371h-1.3731v-0.85762h1.1262v-0.5371h-1.1262v-0.74067h1.3254v-0.53277h-1.9665z" fill="#aa55b9" stroke="#aa55b9" stroke-width=".52916"/>
   </g>
   <g aria-label="X">
    <path d="m9.7894 9.026h0.68003l0.34218-0.71035c0.07797-0.16459 0.1516-0.33352 0.2339-0.52843h0.01733c0.09529 0.19491 0.16892 0.36384 0.25122 0.52843l0.35951 0.71035h0.71036l-0.90094-1.6243 0.84463-1.581h-0.6757l-0.3032 0.65838c-0.0693 0.1516-0.13427 0.30753-0.21224 0.50678h-0.02166c-0.095289-0.19925-0.16459-0.35518-0.23823-0.50678l-0.32053-0.65838h-0.71035l0.84463 1.5507z" fill="#aa55b9" stroke="#aa55b9" stroke-width=".52916"/>
    <path d="m9.7894 9.026h0.68003l0.34218-0.71035c0.07797-0.16459 0.1516-0.33352 0.2339-0.52843h0.01733c0.09529 0.19491 0.16892 0.36384 0.25122 0.52843l0.35951 0.71035h0.71036l-0.90094-1.6243 0.84463-1.581h-0.6757l-0.3032 0.65838c-0.0693 0.1516-0.13427 0.30753-0.21224 0.50678h-0.02166c-0.095289-0.19925-0.16459-0.35518-0.23823-0.50678l-0.32053-0.65838h-0.71035l0.84463 1.5507z" stroke="none"/>
   </g>
  </g>
  <path d="m13.493 11.906c0 0.388-0.08 0.697-0.24 0.928s-0.407 0.38-0.74 0.45v-0.42c0.13008-0.06632 0.22125-0.19011 0.246-0.334h-0.245v-1.146h0.98zm-1.309 0c0 0.388-0.08 0.697-0.24 0.928-0.161 0.231-0.408 0.38-0.74 0.45v-0.42c0.06797-0.03273 0.12828-0.07941 0.177-0.137 0.03878-0.05895 0.06216-0.12668 0.068-0.197h-0.245v-1.146h0.98z" fill-rule="evenodd" style="paint-order:stroke markers fill"/>
  <g aria-label="T">
   <path d="m5.3988 8.4968h0.64105v-2.6725h0.9096v-0.53277h-2.4516v0.53277h0.90094z" fill="#fff"/>
  </g>
  <g aria-label="E">
   <path d="m7.1436 10.084h2.0141v-0.5371h-1.3731v-0.85762h1.1262v-0.5371h-1.1262v-0.74067h1.3254v-0.53277h-1.9665z" fill="#fff"/>
  </g>
 </g>
</svg>
